packages/ffe-icons/icons/open/400/sm/remove_selection.svg

<svg xmlns="http://www.w3.org/2000/svg" height="20" viewBox="0 -960 960 960" width="20"><path d="M636-272 517-154q-11 11-25 10.5T467-155q-11-11-11-25.5t11-25.5l118-117-120-119q-11-11-11-25.5t11-25.5q11-11 26-11t26 11l119 119 119-119q11-11 25-11t25 11q11 11 11.5 25.5T806-442L687-323l119 119q11 11 10.5 25T805-154q-11 11-25 11t-25-11L636-272ZM180.211-744Q165-744 154.5-754.289q-10.5-10.29-10.5-25.5Q144-795 154.289-805.5q10.29-10.5 25.5-10.5Q195-816 205.5-805.711q10.5 10.29 10.5 25.5Q216-765 205.711-754.5q-10.29 10.5-25.5 10.5Zm150 0Q315-744 304.5-754.289q-10.5-10.29-10.5-25.5Q294-795 304.289-805.5q10.29-10.5 25.5-10.5Q345-816 355.5-805.711q10.5 10.29 10.5 25.5Q366-765 355.711-754.5q-10.29 10.5-25.5 10.5Zm150 0Q465-744 454.5-754.289q-10.5-10.29-10.5-25.5Q444-795 454.289-805.5q10.29-10.5 25.5-10.5Q495-816 505.5-805.711q10.5 10.29 10.5 25.5Q516-765 505.711-754.5q-10.29 10.5-25.5 10.5Zm150 0Q615-744 604.5-754.289q-10.5-10.29-10.5-25.5Q594-795 604.289-805.5q10.29-10.5 25.5-10.5Q645-816 655.5-805.711q10.5 10.29 10.5 25.5Q666-765 655.711-754.5q-10.29 10.5-25.5 10.5Zm150 0Q765-744 754.5-754.289q-10.5-10.29-10.5-25.5Q744-795 754.289-805.5q10.29-10.5 25.5-10.5Q795-816 805.5-805.711q10.5 10.29 10.5 25.5Q816-765 805.711-754.5q-10.29 10.5-25.5 10.5Zm-450 600Q315-144 304.5-154.289q-10.5-10.29-10.5-25.5Q294-195 304.289-205.5q10.29-10.5 25.5-10.5Q345-216 355.5-205.711q10.5 10.29 10.5 25.5Q366-165 355.711-154.5q-10.29 10.5-25.5 10.5Zm-150-450Q165-594 154.5-604.289q-10.5-10.29-10.5-25.5Q144-645 154.289-655.5q10.29-10.5 25.5-10.5Q195-666 205.5-655.711q10.5 10.29 10.5 25.5Q216-615 205.711-604.5q-10.29 10.5-25.5 10.5Zm0 150Q165-444 154.5-454.289q-10.5-10.29-10.5-25.5Q144-495 154.289-505.5q10.29-10.5 25.5-10.5Q195-516 205.5-505.711q10.5 10.29 10.5 25.5Q216-465 205.711-454.5q-10.29 10.5-25.5 10.5Zm0 150Q165-294 154.5-304.289q-10.5-10.29-10.5-25.5Q144-345 154.289-355.5q10.29-10.5 25.5-10.5Q195-366 205.5-355.711q10.5 10.29 10.5 25.5Q216-315 205.711-304.5q-10.29 10.5-25.5 10.5Zm0 150Q165-144 154.5-154.289q-10.5-10.29-10.5-25.5Q144-195 154.289-205.5q10.29-10.5 25.5-10.5Q195-216 205.5-205.711q10.5 10.29 10.5 25.5Q216-165 205.711-154.5q-10.29 10.5-25.5 10.5Zm600-450Q765-594 754.5-604.289q-10.5-10.29-10.5-25.5Q744-645 754.289-655.5q10.29-10.5 25.5-10.5Q795-666 805.5-655.711q10.5 10.29 10.5 25.5Q816-615 805.711-604.5q-10.29 10.5-25.5 10.5Z"/></svg>

<svg xmlns="http://www.w3.org/2000/svg" height="20" viewBox="0 -960 960 960" width="20"><path d="M636-272 517-154q-11 11-25 10.5T467-155q-11-11-11-25.5t11-25.5l118-117-120-119q-11-11-11-25.5t11-25.5q11-11 26-11t26 11l119 119 119-119q11-11 25-11t25 11q11 11 11.5 25.5T806-442L687-323l119 119q11 11 10.5 25T805-154q-11 11-25 11t-25-11L636-272ZM180.21-744q-15.21 0-25.71-10.29t-10.5-25.5q0-15.21 10.29-25.71t25.5-10.5q15.21 0 25.71 10.29t10.5 25.5q0 15.21-10.29 25.71t-25.5 10.5Zm150 0q-15.21 0-25.71-10.29t-10.5-25.5q0-15.21 10.29-25.71t25.5-10.5q15.21 0 25.71 10.29t10.5 25.5q0 15.21-10.29 25.71t-25.5 10.5Zm150 0q-15.21 0-25.71-10.29t-10.5-25.5q0-15.21 10.29-25.71t25.5-10.5q15.21 0 25.71 10.29t10.5 25.5q0 15.21-10.29 25.71t-25.5 10.5Zm150 0q-15.21 0-25.71-10.29t-10.5-25.5q0-15.21 10.29-25.71t25.5-10.5q15.21 0 25.71 10.29t10.5 25.5q0 15.21-10.29 25.71t-25.5 10.5Zm150 0q-15.21 0-25.71-10.29t-10.5-25.5q0-15.21 10.29-25.71t25.5-10.5q15.21 0 25.71 10.29t10.5 25.5q0 15.21-10.29 25.71t-25.5 10.5Zm-450 600q-15.21 0-25.71-10.29t-10.5-25.5q0-15.21 10.29-25.71t25.5-10.5q15.21 0 25.71 10.29t10.5 25.5q0 15.21-10.29 25.71t-25.5 10.5Zm-150-450q-15.21 0-25.71-10.29t-10.5-25.5q0-15.21 10.29-25.71t25.5-10.5q15.21 0 25.71 10.29t10.5 25.5q0 15.21-10.29 25.71t-25.5 10.5Zm0 150q-15.21 0-25.71-10.29t-10.5-25.5q0-15.21 10.29-25.71t25.5-10.5q15.21 0 25.71 10.29t10.5 25.5q0 15.21-10.29 25.71t-25.5 10.5Zm0 150q-15.21 0-25.71-10.29t-10.5-25.5q0-15.21 10.29-25.71t25.5-10.5q15.21 0 25.71 10.29t10.5 25.5q0 15.21-10.29 25.71t-25.5 10.5Zm0 150q-15.21 0-25.71-10.29t-10.5-25.5q0-15.21 10.29-25.71t25.5-10.5q15.21 0 25.71 10.29t10.5 25.5q0 15.21-10.29 25.71t-25.5 10.5Zm600-450q-15.21 0-25.71-10.29t-10.5-25.5q0-15.21 10.29-25.71t25.5-10.5q15.21 0 25.71 10.29t10.5 25.5q0 15.21-10.29 25.71t-25.5 10.5Z"/></svg>
